src/images/single-assets/BETA.svg

<svg width="96" height="96" viewBox="0 0 96 96" fill="none" xmlns="http://www.w3.org/2000/svg">
<path d="M48 96C74.5098 96 96 74.5098 96 48C96 21.4904 74.5098 0 48 0C21.4903 0 0 21.4904 0 48C0 74.5098 21.4903 96 48 96Z" fill="#231F20"/>
<path d="M64.6312 45.865C64.0726 45.7076 63.6334 46.3534 63.9943 46.8103C64.9281 48.0001 65.4312 49.2654 65.4312 50.5774C65.4312 57.5214 51.3601 63.1507 34.0015 63.1507C29.027 63.1507 24.3258 62.6881 20.1455 61.865C19.6247 61.7632 19.3484 62.4494 19.7935 62.7405C25.3266 66.333 35.2495 68.7303 46.5748 68.7303C63.933 68.7303 78.0046 63.101 78.0046 56.157C78.0014 51.8983 72.7188 48.137 64.6312 45.865Z" fill="url(#paint0_linear)"/>
<path d="M59.2263 27.2495C58.749 27.1157 58.3739 27.6655 58.6792 28.0582C59.4765 29.0764 59.9099 30.1586 59.9099 31.2815C59.9099 37.2219 47.869 42.0393 33.0153 42.0393C28.7593 42.0393 24.736 41.6437 21.1579 40.9397C20.7127 40.8524 20.4771 41.4401 20.8582 41.6873C25.5913 44.7622 34.0829 46.8133 43.7731 46.8133C58.6267 46.8133 70.6676 41.9957 70.6676 36.0553C70.6676 32.4131 66.1467 29.1957 59.2263 27.2495Z" fill="url(#paint1_linear)"/>
<defs>
<linearGradient id="paint0_linear" x1="19.5691" y1="57.2819" x2="78.0014" y2="57.2819" gradientUnits="userSpaceOnUse">
<stop stop-color="#8077F2"/>
<stop offset="1" stop-color="#FFB29B"/>
</linearGradient>
<linearGradient id="paint1_linear" x1="20.6679" y1="37.0205" x2="70.6681" y2="37.0205" gradientUnits="userSpaceOnUse">
<stop stop-color="#8077F2"/>
<stop offset="1" stop-color="#FFB29B"/>
</linearGradient>
</defs>
</svg>

<svg xmlns="http://www.w3.org/2000/svg" width="96" height="96" fill="none"><path fill="#231F20" d="M48 96c26.51 0 48-21.49 48-48S74.51 0 48 0 0 21.49 0 48s21.49 48 48 48"/><path fill="url(#a)" d="M64.631 45.865c-.558-.157-.998.488-.637.945.934 1.19 1.437 2.455 1.437 3.767 0 6.944-14.07 12.574-31.43 12.574-4.974 0-9.675-.463-13.855-1.286-.521-.102-.798.584-.352.875 5.533 3.593 15.455 5.99 26.78 5.99 17.359 0 31.43-5.629 31.43-12.573-.003-4.259-5.285-8.02-13.373-10.292"/><path fill="url(#b)" d="M59.226 27.25c-.477-.134-.852.416-.547.808.797 1.018 1.23 2.1 1.23 3.224 0 5.94-12.04 10.757-26.894 10.757-4.256 0-8.279-.395-11.857-1.1-.445-.087-.68.501-.3.748 4.733 3.075 13.225 5.126 22.915 5.126 14.854 0 26.895-4.817 26.895-10.758 0-3.642-4.521-6.86-11.442-8.805"/><defs><linearGradient id="a" x1="19.569" x2="78.001" y1="57.282" y2="57.282" gradientUnits="userSpaceOnUse"><stop stop-color="#8077F2"/><stop offset="1" stop-color="#FFB29B"/></linearGradient><linearGradient id="b" x1="20.668" x2="70.668" y1="37.02" y2="37.02" gradientUnits="userSpaceOnUse"><stop stop-color="#8077F2"/><stop offset="1" stop-color="#FFB29B"/></linearGradient></defs></svg>
